fonts/xavani/uni004f.svg

<svg width="500" height="850" xmlns="http://www.w3.org/2000/svg">
    <path
        d="M -259.56836 586.67969 L -273.09766 600.20703 L -273.09766 619.34375 L -152.00781 740.43164 L -183.03125 771.45508 L -316.9707 771.45508 L -411.67969 676.74609 L -425.21094 663.2168 L -444.34375 663.21484 L -457.87305 676.74609 L -457.87305 695.87891 L -444.34375 709.4082 L -336.10352 817.64844 L -163.89648 817.64844 L -109.77734 763.5293 L -103.76172 757.51562 L -96.246094 749.99805 L -55.654297 709.4082 L -42.126953 695.87891 L -42.126953 676.74414 L -55.654297 663.21484 L -74.789062 663.21484 L -88.320312 676.74609 L -119.3457 707.76758 L -240.43164 586.67969 L -259.56836 586.67969 z " />
</svg>

<svg width="500" height="850" xmlns="http://www.w3.org/2000/svg">
    <path
        d="m -259.568,586.68 -13.53,13.527 v 19.137 l 121.09,121.088 -31.023,31.023 h -133.94 l -94.709,-94.709 -13.53,-13.53 -19.134,-10e-4 -13.529,13.531 v 19.133 l 13.53,13.53 108.24,108.24 h 172.207 l 54.119,-54.12 6.015,-6.013 7.516,-7.518 40.592,-40.59 13.527,-13.53 v -19.134 l -13.527,-13.53 H -74.79 l -13.531,13.532 -31.024,31.022 -121.087,-121.088 z" />
</svg>
